app/images/Logo.svg

<svg width="159" height="92" viewBox="0 0 159 92" fill="none" xmlns="http://www.w3.org/2000/svg">
<path d="M72.7819 50.94H73.2779L72.8439 51.436C70.7772 53.792 68.3179 55.962 65.4659 57.946C62.6139 59.93 59.5345 61.6453 56.2279 63.092C52.9625 64.5386 49.5939 65.6546 46.1219 66.44C42.6499 67.2666 39.2605 67.68 35.9539 67.68C31.2832 67.68 26.9845 66.9566 23.0579 65.51C19.1312 64.0633 15.7212 62.038 12.8279 59.434C9.93453 56.83 7.70253 53.7506 6.13187 50.196C4.51987 46.6 3.71387 42.694 3.71387 38.478C3.71387 33.6006 4.6852 29.0953 6.62787 24.962C8.57053 20.7873 11.2779 17.15 14.7499 14.05C18.2632 10.95 22.3552 8.55264 27.0259 6.85797C31.7379 5.12197 36.8425 4.25397 42.3399 4.25397C45.1919 4.25397 48.0025 4.50197 50.7719 4.99797C53.5412 5.49397 56.1039 6.19664 58.4599 7.10597C60.8572 8.0153 62.9239 9.0693 64.6599 10.268C66.4372 11.4666 67.7185 12.748 68.5039 14.112L68.1939 14.298C67.4085 12.934 66.1479 11.6733 64.4119 10.516C62.7172 9.35863 60.6919 8.34597 58.3359 7.47797C55.9799 6.56863 53.4172 5.86597 50.6479 5.36997C47.9199 4.87397 45.1505 4.62597 42.3399 4.62597C36.8839 4.62597 31.8205 5.4733 27.1499 7.16797C22.5205 8.86264 18.4699 11.2393 14.9979 14.298C11.5672 17.3566 8.88053 20.9526 6.93787 25.086C5.03653 29.178 4.08587 33.642 4.08587 38.478C4.08587 42.6526 4.8712 46.4966 6.44187 50.01C8.01253 53.5233 10.2239 56.5613 13.0759 59.124C15.9279 61.728 19.2965 63.7326 23.1819 65.138C27.0672 66.5846 31.3245 67.308 35.9539 67.308C39.2605 67.308 42.6085 66.9153 45.9979 66.13C49.3872 65.386 52.6939 64.3113 55.9179 62.906C59.1419 61.5006 62.1592 59.8266 64.9699 57.884C67.7805 55.9413 70.2399 53.792 72.3479 51.436L72.7819 50.94ZM30.8079 61.17C32.6679 61.17 34.7759 60.8186 37.1319 60.116C39.5292 59.4133 41.9679 58.3593 44.4479 56.954C46.9692 55.5486 49.3252 53.792 51.5159 51.684C53.4172 50.0306 55.4012 48.1706 57.4679 46.104C59.5345 43.996 61.6219 41.8053 63.7299 39.532C65.8792 37.2173 67.9872 34.9233 70.0539 32.65C72.1619 30.3353 74.1872 28.1446 76.1299 26.078C78.0725 23.97 79.8912 22.0893 81.5859 20.436C83.7765 18.2866 85.6365 16.778 87.1659 15.91C88.6952 15.042 89.8939 14.608 90.7619 14.608C91.9192 14.608 92.4979 15.3106 92.4979 16.716C92.4979 18.5346 91.9192 20.5393 90.7619 22.73C89.6045 24.9206 87.9925 27.1733 85.9259 29.488C83.8592 31.8026 81.4619 34.0966 78.7339 36.37C76.0059 38.6433 73.0505 40.7926 69.8679 42.818C66.7265 44.802 63.4612 46.5793 60.0719 48.15C56.6825 49.6793 53.3139 50.8986 49.9659 51.808C46.6179 52.676 43.3939 53.11 40.2939 53.11C35.0859 53.11 30.7872 52.3246 27.3979 50.754C24.0085 49.1833 21.4665 47.096 19.7719 44.492C18.1185 41.8466 17.2919 38.912 17.2919 35.688C17.2919 32.8773 17.9325 30.294 19.2139 27.938C20.5365 25.5406 22.3759 23.4533 24.7319 21.676C27.0879 19.8986 29.8365 18.514 32.9779 17.522C36.1605 16.53 39.6119 16.034 43.3319 16.034C47.3412 16.034 50.5445 16.6333 52.9419 17.832C55.3392 19.0306 57.0752 20.5806 58.1499 22.482C59.2659 24.342 59.8239 26.3053 59.8239 28.372C59.8239 30.2733 59.3072 32.0506 58.2739 33.704C57.2819 35.3573 55.8972 36.804 54.1199 38.044C52.3839 39.284 50.3379 40.2553 47.9819 40.958C45.6672 41.6606 43.1872 42.012 40.5419 42.012C37.3592 42.012 34.7759 41.4126 32.7919 40.214C30.8079 39.0153 29.8159 37.424 29.8159 35.44C29.8159 33.6626 30.6012 32.0713 32.1719 30.666C33.7839 29.2606 35.9332 28.1446 38.6199 27.318C41.3479 26.4913 44.4065 26.078 47.7959 26.078C50.7719 26.078 53.8512 26.4086 57.0339 27.07C60.2579 27.69 63.3785 28.5786 66.3959 29.736C69.4132 30.852 72.1619 32.154 74.6419 33.642C77.1219 35.13 79.1059 36.7213 80.5939 38.416L80.3459 38.664C78.8579 37.0106 76.8945 35.4606 74.4559 34.014C72.0172 32.526 69.2892 31.224 66.2719 30.108C63.2959 28.9506 60.2165 28.062 57.0339 27.442C53.8512 26.7806 50.7719 26.45 47.7959 26.45C44.4892 26.45 41.4925 26.8633 38.8059 27.69C36.1605 28.4753 34.0525 29.55 32.4819 30.914C30.9525 32.2366 30.1879 33.7453 30.1879 35.44C30.1879 37.3 31.1385 38.8086 33.0399 39.966C34.9412 41.082 37.4419 41.64 40.5419 41.64C44.0552 41.64 47.2379 41.0406 50.0899 39.842C52.9419 38.6433 55.2152 37.052 56.9099 35.068C58.6045 33.0426 59.4519 30.8106 59.4519 28.372C59.4519 24.6933 58.0052 21.7793 55.1119 19.63C52.2599 17.4806 48.3332 16.406 43.3319 16.406C39.6532 16.406 36.2432 16.902 33.1019 17.894C30.0019 18.8446 27.2945 20.188 24.9799 21.924C22.6652 23.66 20.8672 25.706 19.5859 28.062C18.3045 30.418 17.6639 32.96 17.6639 35.688C17.6639 39.2013 18.5732 42.2393 20.3919 44.802C22.2105 47.3233 24.8145 49.2866 28.2039 50.692C31.5932 52.056 35.6232 52.738 40.2939 52.738C43.8899 52.738 47.6305 52.1593 51.5159 51.002C55.4425 49.8033 59.3485 48.212 63.2339 46.228C67.1192 44.2026 70.7979 41.9293 74.2699 39.408C77.7419 36.8866 80.8005 34.2826 83.4459 31.596C86.1325 28.9093 88.2405 26.2846 89.7699 23.722C91.3405 21.118 92.1259 18.7826 92.1259 16.716C92.1259 15.5586 91.6712 14.98 90.7619 14.98C89.9352 14.98 88.7985 15.4346 87.3519 16.344C85.9465 17.2533 84.1692 18.7413 82.0199 20.808C79.9119 22.9573 77.7625 25.4993 75.5719 28.434C73.4225 31.3686 71.2112 34.4273 68.9379 37.61C66.6645 40.7513 64.2879 43.8306 61.8079 46.848C59.3279 49.824 56.7239 52.4693 53.9959 54.784C51.2265 57.0986 48.1885 58.9586 44.8819 60.364C41.6165 61.7693 38.3305 62.472 35.0239 62.472C32.2132 62.472 30.1052 62.2653 28.6999 61.852C27.3359 61.48 26.4265 61.0046 25.9719 60.426C25.5172 59.8473 25.2899 59.2893 25.2899 58.752C25.2899 58.1733 25.5999 57.6153 26.2199 57.078C26.8812 56.5406 27.8732 56.272 29.1959 56.272C32.0065 56.272 34.7139 56.768 37.3179 57.76C39.9632 58.7106 42.5672 59.93 45.1299 61.418C47.6925 62.9473 50.2759 64.5593 52.8799 66.254C55.4839 67.9486 58.1292 69.54 60.8159 71.028C63.5439 72.5573 66.3752 73.7973 69.3099 74.748C72.2445 75.74 75.3239 76.236 78.5479 76.236C81.9785 76.236 84.6652 75.678 86.6079 74.562C88.5505 73.446 89.5219 71.896 89.5219 69.912C89.5219 68.8786 89.1499 67.804 88.4059 66.688L88.7159 66.502C89.5839 67.866 90.0179 69.1266 90.0179 70.284C90.0179 72.5573 88.8812 74.376 86.6079 75.74C84.3345 77.104 81.2552 77.786 77.3699 77.786C75.4272 77.786 73.5465 77.5793 71.7279 77.166C69.9092 76.794 67.9872 76.1326 65.9619 75.182C63.9365 74.2313 61.6219 72.9293 59.0179 71.276C56.4139 69.6226 53.3345 67.5146 49.7799 64.952C46.1425 62.3066 42.5052 60.2606 38.8679 58.814C35.2719 57.326 32.0685 56.6026 29.2579 56.644C28.2245 56.644 27.3565 56.83 26.6539 57.202C25.9925 57.574 25.6619 58.0493 25.6619 58.628C25.6619 59.4133 26.1372 60.0333 27.0879 60.488C28.0385 60.9426 29.2785 61.17 30.8079 61.17Z" fill="#121218"/>
<path d="M71.6809 59.434C71.1849 59.434 70.8129 59.2066 70.5649 58.752C70.2756 58.2973 70.1309 57.6773 70.1309 56.892C70.1309 55.8173 70.4615 54.6806 71.1229 53.482C71.7429 52.2833 72.5902 51.126 73.6649 50.01C74.7395 48.8526 75.9382 47.8193 77.2609 46.91C78.5835 45.9593 79.9475 45.2153 81.3529 44.678C82.7995 44.1406 84.1636 43.872 85.4449 43.872C86.5196 43.872 87.0569 44.2853 87.0569 45.112C87.0569 45.8973 86.5609 46.8893 85.5689 48.088C84.5769 49.2453 83.3369 50.6093 81.8489 52.18C80.6502 53.42 79.3895 54.598 78.0669 55.714C76.7855 56.7886 75.5869 57.6773 74.4709 58.38C73.3549 59.0826 72.4249 59.434 71.6809 59.434ZM71.7429 59.124C72.3629 59.124 73.1689 58.814 74.1609 58.194C75.1942 57.574 76.3515 56.7266 77.6329 55.652C78.9142 54.5773 80.2369 53.3373 81.6009 51.932C83.0889 50.3613 84.2876 49.018 85.1969 47.902C86.1476 46.786 86.6229 45.8766 86.6229 45.174C86.6229 44.6366 86.2716 44.368 85.5689 44.368C84.9489 44.368 84.1429 44.616 83.1509 45.112C82.2002 45.608 81.1669 46.29 80.0509 47.158C78.9349 47.9846 77.8396 48.9146 76.7649 49.948C75.6902 50.9813 74.6982 52.0146 73.7889 53.048C72.9209 54.0813 72.2182 55.0526 71.6809 55.962C71.1436 56.8713 70.8749 57.636 70.8749 58.256C70.8749 58.8346 71.1642 59.124 71.7429 59.124ZM87.2429 51.436C86.2095 52.5933 85.2176 53.5026 84.2669 54.164C83.3162 54.8253 82.4895 55.156 81.7869 55.156C80.6709 55.156 80.1129 54.5773 80.1129 53.42C80.1129 52.7586 80.2782 52.118 80.6089 51.498C80.9395 50.8366 81.5182 50.0306 82.3449 49.08H84.6389L81.7249 52.304C81.2289 52.8 80.9809 53.358 80.9809 53.978C80.9809 54.5566 81.2702 54.846 81.8489 54.846C82.4276 54.846 83.1302 54.5566 83.9569 53.978C84.8249 53.3993 85.7136 52.5933 86.6229 51.56L87.1809 50.94H87.6769L87.2429 51.436Z" fill="#121218"/>
<path d="M85.595 59.434C84.479 59.434 83.921 58.814 83.921 57.574C83.921 55.6313 85.0164 53.42 87.207 50.94L127.941 4.81197H131.847C131.186 5.14263 130.173 5.92797 128.809 7.16797C127.486 8.36663 125.936 9.8753 124.159 11.694C122.423 13.4713 120.604 15.4346 118.703 17.584L89.935 50.196C88.0337 52.304 86.711 53.9366 85.967 55.094C85.223 56.2513 84.851 57.2433 84.851 58.07C84.851 58.7726 85.1404 59.124 85.719 59.124C86.7937 59.124 88.261 58.4626 90.121 57.14C91.981 55.776 93.9444 53.916 96.011 51.56L96.569 50.94H97.065L96.631 51.436C94.3577 53.9986 92.2704 55.9826 90.369 57.388C88.509 58.752 86.9177 59.434 85.595 59.434ZM94.957 59.434C93.841 59.434 93.283 58.814 93.283 57.574C93.283 55.6313 94.3784 53.42 96.569 50.94L138.729 3.19997C139.308 3.19997 139.969 3.15863 140.713 3.07597C141.498 2.95197 142.242 2.8073 142.945 2.64197C142.284 2.97264 141.188 3.8613 139.659 5.30797C138.13 6.75463 136.352 8.55263 134.327 10.702C132.343 12.81 130.256 15.104 128.065 17.584L99.297 50.196C97.3957 52.304 96.073 53.9366 95.329 55.094C94.585 56.2513 94.213 57.2433 94.213 58.07C94.213 58.7726 94.5024 59.124 95.081 59.124C96.1557 59.124 97.623 58.4626 99.483 57.14C101.343 55.776 103.306 53.916 105.373 51.56L105.931 50.94H106.427L105.993 51.436C103.72 53.9986 101.632 55.9826 99.731 57.388C97.871 58.752 96.2797 59.434 94.957 59.434Z" fill="#121218"/>
<path d="M78.016 91.426C75.784 91.426 74.0687 91.0126 72.87 90.186C71.6713 89.3593 71.072 88.1606 71.072 86.59C71.072 85.598 71.4027 84.7506 72.064 84.048C72.684 83.3453 73.49 82.87 74.482 82.622V82.932C73.5727 83.1386 72.8493 83.5726 72.312 84.234C71.7334 84.8953 71.444 85.6806 71.444 86.59C71.444 87.9953 71.9814 89.0906 73.056 89.876C74.1307 90.6613 75.598 91.054 77.458 91.054C79.8554 91.054 82.3147 90.372 84.836 89.008C87.316 87.6853 89.8787 85.8253 92.524 83.428C95.1694 81.0306 97.8974 78.1993 100.708 74.934C103.477 71.71 106.309 68.1966 109.202 64.394C112.137 60.5913 115.133 56.6233 118.192 52.49L118.316 53.172H117.076L122.284 47.84L125.012 44.554H128.484C127.409 45.3393 126.252 46.2486 125.012 47.282C123.772 48.3153 122.553 49.39 121.354 50.506C120.197 51.5806 119.143 52.6553 118.192 53.73C115.381 57.946 112.653 61.9346 110.008 65.696C107.404 69.4986 104.821 72.9706 102.258 76.112C99.6954 79.2533 97.1327 81.9606 94.57 84.234C91.966 86.5486 89.3 88.326 86.572 89.566C83.844 90.806 80.992 91.426 78.016 91.426ZM107.962 59.434C106.929 59.434 106.412 58.8553 106.412 57.698C106.412 56.6646 106.722 55.6933 107.342 54.784C107.962 53.8746 108.727 53.0066 109.636 52.18C110.587 51.312 111.517 50.4853 112.426 49.7C113.377 48.9146 114.162 48.1706 114.782 47.468C115.402 46.724 115.712 46.0006 115.712 45.298C115.712 44.8433 115.464 44.616 114.968 44.616C114.472 44.616 113.769 44.8846 112.86 45.422C111.992 45.918 111.021 46.6 109.946 47.468C108.913 48.336 107.921 49.2866 106.97 50.32L106.412 50.94H105.916L106.474 50.32C108.127 48.5013 109.719 47.0546 111.248 45.98C112.819 44.864 114.079 44.306 115.03 44.306C115.402 44.306 115.795 44.4713 116.208 44.802C116.663 45.1326 116.89 45.6906 116.89 46.476C116.89 47.3853 116.559 48.2946 115.898 49.204C115.237 50.072 114.41 50.9193 113.418 51.746C112.467 52.5726 111.496 53.358 110.504 54.102C109.512 54.846 108.685 55.5693 108.024 56.272C107.363 56.9746 107.032 57.636 107.032 58.256C107.032 58.5453 107.135 58.7726 107.342 58.938C107.549 59.062 107.776 59.124 108.024 59.124C108.603 59.124 109.388 58.8553 110.38 58.318C111.413 57.7393 112.529 56.9953 113.728 56.086C114.927 55.1766 116.043 54.2053 117.076 53.172H117.51C116.435 54.288 115.278 55.3213 114.038 56.272C112.798 57.2226 111.641 57.9873 110.566 58.566C109.491 59.1446 108.623 59.434 107.962 59.434Z" fill="#121218"/>
</svg>

<svg width="159" height="92" fill="none" xmlns="http://www.w3.org/2000/svg"><path d="M72.782 50.94h.496l-.434.496c-2.067 2.356-4.526 4.526-7.378 6.51a54.097 54.097 0 0 1-9.238 5.146 54.676 54.676 0 0 1-10.106 3.348c-3.472.827-6.861 1.24-10.168 1.24-4.67 0-8.97-.723-12.896-2.17-3.927-1.447-7.337-3.472-10.23-6.076a26.945 26.945 0 0 1-6.696-9.238C4.52 46.6 3.714 42.694 3.714 38.478c0-4.877.971-9.383 2.914-13.516 1.943-4.175 4.65-7.812 8.122-10.912 3.513-3.1 7.605-5.497 12.276-7.192 4.712-1.736 9.817-2.604 15.314-2.604 2.852 0 5.662.248 8.432.744 2.77.496 5.332 1.199 7.688 2.108 2.397.91 4.464 1.963 6.2 3.162 1.777 1.199 3.059 2.48 3.844 3.844l-.31.186c-.785-1.364-2.046-2.625-3.782-3.782-1.695-1.157-3.72-2.17-6.076-3.038-2.356-.91-4.919-1.612-7.688-2.108a46.35 46.35 0 0 0-8.308-.744c-5.456 0-10.52.847-15.19 2.542-4.63 1.695-8.68 4.071-12.152 7.13a33.28 33.28 0 0 0-8.06 10.788c-1.901 4.092-2.852 8.556-2.852 13.392 0 4.175.785 8.019 2.356 11.532a26.85 26.85 0 0 0 6.634 9.114c2.852 2.604 6.22 4.609 10.106 6.014 3.885 1.447 8.143 2.17 12.772 2.17 3.306 0 6.654-.393 10.044-1.178a53.46 53.46 0 0 0 9.92-3.224 53.416 53.416 0 0 0 9.052-5.022c2.81-1.943 5.27-4.092 7.378-6.448l.434-.496zM30.808 61.17c1.86 0 3.968-.351 6.324-1.054 2.397-.703 4.836-1.757 7.316-3.162 2.521-1.405 4.877-3.162 7.068-5.27a117.691 117.691 0 0 0 5.952-5.58 326.75 326.75 0 0 0 6.262-6.572 887.49 887.49 0 0 0 6.324-6.882 567.222 567.222 0 0 1 6.076-6.572 148.605 148.605 0 0 1 5.456-5.642c2.19-2.15 4.05-3.658 5.58-4.526 1.53-.868 2.728-1.302 3.596-1.302 1.157 0 1.736.703 1.736 2.108 0 1.819-.579 3.823-1.736 6.014-1.157 2.19-2.77 4.443-4.836 6.758-2.067 2.315-4.464 4.609-7.192 6.882a85.692 85.692 0 0 1-8.866 6.448 86.2 86.2 0 0 1-9.796 5.332c-3.39 1.53-6.758 2.749-10.106 3.658-3.348.868-6.572 1.302-9.672 1.302-5.208 0-9.507-.785-12.896-2.356-3.39-1.57-5.931-3.658-7.626-6.262-1.653-2.645-2.48-5.58-2.48-8.804 0-2.81.64-5.394 1.922-7.75 1.323-2.397 3.162-4.485 5.518-6.262 2.356-1.777 5.105-3.162 8.246-4.154 3.182-.992 6.634-1.488 10.354-1.488 4.01 0 7.212.6 9.61 1.798 2.397 1.199 4.133 2.749 5.208 4.65 1.116 1.86 1.674 3.823 1.674 5.89 0 1.901-.517 3.679-1.55 5.332-.992 1.653-2.377 3.1-4.154 4.34-1.736 1.24-3.782 2.211-6.138 2.914-2.315.703-4.795 1.054-7.44 1.054-3.183 0-5.766-.6-7.75-1.798-1.984-1.199-2.976-2.79-2.976-4.774 0-1.777.785-3.369 2.356-4.774 1.612-1.405 3.761-2.521 6.448-3.348 2.728-.827 5.787-1.24 9.176-1.24 2.976 0 6.055.33 9.238.992a55.187 55.187 0 0 1 9.362 2.666c3.017 1.116 5.766 2.418 8.246 3.906 2.48 1.488 4.464 3.08 5.952 4.774l-.248.248c-1.488-1.653-3.452-3.203-5.89-4.65-2.439-1.488-5.167-2.79-8.184-3.906a53.83 53.83 0 0 0-9.238-2.666c-3.183-.661-6.262-.992-9.238-.992-3.307 0-6.303.413-8.99 1.24-2.645.785-4.753 1.86-6.324 3.224-1.53 1.323-2.294 2.831-2.294 4.526 0 1.86.95 3.369 2.852 4.526 1.901 1.116 4.402 1.674 7.502 1.674 3.513 0 6.696-.6 9.548-1.798 2.852-1.199 5.125-2.79 6.82-4.774 1.695-2.025 2.542-4.257 2.542-6.696 0-3.679-1.447-6.593-4.34-8.742-2.852-2.15-6.779-3.224-11.78-3.224-3.679 0-7.089.496-10.23 1.488-3.1.95-5.807 2.294-8.122 4.03-2.315 1.736-4.113 3.782-5.394 6.138-1.281 2.356-1.922 4.898-1.922 7.626 0 3.513.91 6.551 2.728 9.114 1.819 2.521 4.422 4.485 7.812 5.89 3.39 1.364 7.42 2.046 12.09 2.046 3.596 0 7.337-.579 11.222-1.736 3.927-1.199 7.833-2.79 11.718-4.774a87.898 87.898 0 0 0 11.036-6.82c3.472-2.521 6.53-5.125 9.176-7.812 2.686-2.687 4.794-5.311 6.324-7.874 1.57-2.604 2.356-4.94 2.356-7.006 0-1.157-.455-1.736-1.364-1.736-.827 0-1.963.455-3.41 1.364-1.406.91-3.183 2.397-5.332 4.464-2.108 2.15-4.257 4.691-6.448 7.626a950.405 950.405 0 0 0-6.634 9.176 189.77 189.77 0 0 1-7.13 9.238c-2.48 2.976-5.084 5.621-7.812 7.936a36.25 36.25 0 0 1-9.114 5.58c-3.265 1.405-6.551 2.108-9.858 2.108-2.81 0-4.919-.207-6.324-.62-1.364-.372-2.273-.847-2.728-1.426-.455-.579-.682-1.137-.682-1.674 0-.579.31-1.137.93-1.674.661-.537 1.653-.806 2.976-.806 2.81 0 5.518.496 8.122 1.488a47.63 47.63 0 0 1 7.812 3.658 234.924 234.924 0 0 1 7.75 4.836 130.194 130.194 0 0 0 7.936 4.774 46.878 46.878 0 0 0 8.494 3.72c2.934.992 6.014 1.488 9.238 1.488 3.43 0 6.117-.558 8.06-1.674 1.942-1.116 2.914-2.666 2.914-4.65 0-1.033-.372-2.108-1.116-3.224l.31-.186c.868 1.364 1.302 2.625 1.302 3.782 0 2.273-1.137 4.092-3.41 5.456-2.273 1.364-5.353 2.046-9.238 2.046-1.943 0-3.824-.207-5.642-.62-1.819-.372-3.74-1.033-5.766-1.984-2.026-.95-4.34-2.253-6.944-3.906s-5.684-3.761-9.238-6.324c-3.638-2.645-7.275-4.691-10.912-6.138-3.596-1.488-6.8-2.211-9.61-2.17-1.034 0-1.901.186-2.604.558-.662.372-.992.847-.992 1.426 0 .785.475 1.405 1.426 1.86.95.455 2.19.682 3.72.682z" fill="#121218"/><path d="M71.68 59.434c-.495 0-.867-.227-1.115-.682-.29-.455-.434-1.075-.434-1.86 0-1.075.33-2.211.992-3.41.62-1.199 1.467-2.356 2.542-3.472a21.539 21.539 0 0 1 3.596-3.1 18.058 18.058 0 0 1 4.092-2.232c1.447-.537 2.81-.806 4.092-.806 1.075 0 1.612.413 1.612 1.24 0 .785-.496 1.777-1.488 2.976a113.79 113.79 0 0 1-3.72 4.092 51.01 51.01 0 0 1-3.782 3.534c-1.281 1.075-2.48 1.963-3.596 2.666-1.116.703-2.046 1.054-2.79 1.054zm.063-.31c.62 0 1.426-.31 2.418-.93 1.033-.62 2.19-1.467 3.472-2.542a53.364 53.364 0 0 0 3.968-3.72c1.488-1.57 2.687-2.914 3.596-4.03.95-1.116 1.426-2.025 1.426-2.728 0-.537-.351-.806-1.054-.806-.62 0-1.426.248-2.418.744-.95.496-1.984 1.178-3.1 2.046a33.619 33.619 0 0 0-3.286 2.79 51.561 51.561 0 0 0-2.976 3.1c-.868 1.033-1.57 2.005-2.108 2.914-.537.91-.806 1.674-.806 2.294 0 .579.29.868.868.868zm15.5-7.688c-1.033 1.157-2.025 2.067-2.976 2.728-.95.661-1.777.992-2.48.992-1.116 0-1.674-.579-1.674-1.736 0-.661.165-1.302.496-1.922.33-.661.91-1.467 1.736-2.418h2.294l-2.914 3.224c-.496.496-.744 1.054-.744 1.674 0 .579.29.868.868.868.579 0 1.281-.29 2.108-.868.868-.579 1.757-1.385 2.666-2.418l.558-.62h.496l-.434.496z" fill="#121218"/><path d="M85.595 59.434c-1.116 0-1.674-.62-1.674-1.86 0-1.943 1.095-4.154 3.286-6.634l40.734-46.128h3.906c-.661.33-1.674 1.116-3.038 2.356-1.323 1.199-2.873 2.707-4.65 4.526a162.816 162.816 0 0 0-5.456 5.89L89.935 50.196c-1.901 2.108-3.224 3.74-3.968 4.898-.744 1.157-1.116 2.15-1.116 2.976 0 .703.29 1.054.868 1.054 1.075 0 2.542-.661 4.402-1.984 1.86-1.364 3.823-3.224 5.89-5.58l.558-.62h.496l-.434.496c-2.273 2.563-4.36 4.547-6.262 5.952-1.86 1.364-3.451 2.046-4.774 2.046zm9.362 0c-1.116 0-1.674-.62-1.674-1.86 0-1.943 1.095-4.154 3.286-6.634l42.16-47.74c.579 0 1.24-.041 1.984-.124a30.647 30.647 0 0 0 2.232-.434c-.661.33-1.757 1.22-3.286 2.666-1.529 1.447-3.307 3.245-5.332 5.394a296.422 296.422 0 0 0-6.262 6.882L99.297 50.196c-1.901 2.108-3.224 3.74-3.968 4.898-.744 1.157-1.116 2.15-1.116 2.976 0 .703.29 1.054.868 1.054 1.075 0 2.542-.661 4.402-1.984 1.86-1.364 3.823-3.224 5.89-5.58l.558-.62h.496l-.434.496c-2.273 2.563-4.361 4.547-6.262 5.952-1.86 1.364-3.451 2.046-4.774 2.046z" fill="#121218"/><path d="M78.016 91.426c-2.232 0-3.947-.413-5.146-1.24-1.199-.827-1.798-2.025-1.798-3.596 0-.992.33-1.84.992-2.542.62-.703 1.426-1.178 2.418-1.426v.31c-.91.207-1.633.64-2.17 1.302-.579.661-.868 1.447-.868 2.356 0 1.405.537 2.5 1.612 3.286 1.075.785 2.542 1.178 4.402 1.178 2.397 0 4.857-.682 7.378-2.046 2.48-1.323 5.043-3.183 7.688-5.58 2.645-2.397 5.373-5.229 8.184-8.494a229.036 229.036 0 0 0 8.494-10.54 739.439 739.439 0 0 0 8.99-11.904l.124.682h-1.24l5.208-5.332 2.728-3.286h3.472a69.628 69.628 0 0 0-3.472 2.728 88.91 88.91 0 0 0-3.658 3.224 46.198 46.198 0 0 0-3.162 3.224 585.332 585.332 0 0 1-8.184 11.966c-2.604 3.803-5.187 7.275-7.75 10.416-2.563 3.141-5.125 5.849-7.688 8.122-2.604 2.315-5.27 4.092-7.998 5.332a20.448 20.448 0 0 1-8.556 1.86zm29.946-31.992c-1.033 0-1.55-.579-1.55-1.736 0-1.033.31-2.005.93-2.914a14.82 14.82 0 0 1 2.294-2.604 136.95 136.95 0 0 1 2.79-2.48c.951-.785 1.736-1.53 2.356-2.232.62-.744.93-1.467.93-2.17 0-.455-.248-.682-.744-.682s-1.199.269-2.108.806c-.868.496-1.839 1.178-2.914 2.046a32.18 32.18 0 0 0-2.976 2.852l-.558.62h-.496l.558-.62c1.653-1.819 3.245-3.265 4.774-4.34 1.571-1.116 2.831-1.674 3.782-1.674.372 0 .765.165 1.178.496.455.33.682.889.682 1.674 0 .91-.331 1.819-.992 2.728-.661.868-1.488 1.715-2.48 2.542a52.018 52.018 0 0 1-2.914 2.356c-.992.744-1.819 1.467-2.48 2.17-.661.703-.992 1.364-.992 1.984 0 .29.103.517.31.682.207.124.434.186.682.186.579 0 1.364-.269 2.356-.806 1.033-.579 2.149-1.323 3.348-2.232a32.474 32.474 0 0 0 3.348-2.914h.434a31.011 31.011 0 0 1-3.472 3.1c-1.24.95-2.397 1.715-3.472 2.294-1.075.579-1.943.868-2.604.868z" fill="#121218"/></svg>
